X: 1
T: Martin Wynne's (McGettrick's)
M: 4/4
L: 1/8
R: reel
K: Dmaj
AD ~D2 Dd BF | AB  df eB dB | AD ~D2 DF AF | GF EF GB dB |
AD ~D2 Dd BF | AB  df ef dB | AF Ad BA FB | AB de fd de ||
fe dB ~A3 e | fe de fa ag | fe dB AD FA | GF ED GB de |
fe dB ~A3 e | fe de fa af | ag fd eB dB | Ad fd eB dB ||
